svgs/hive_social.svg

<?xml version="1.0" encoding="UTF-8" standalone="no"?>
<svg
   width="158"
   height="158"
   viewBox="0 0 158 158"
   fill="none"
   version="1.1"
   id="svg1"
   sodipodi:docname="hive_social.svg"
   inkscape:version="1.3 (0e150ed6c4, 2023-07-21)"
   xmlns:inkscape="http://www.inkscape.org/namespaces/inkscape"
   xmlns:sodipodi="http://sodipodi.sourceforge.net/DTD/sodipodi-0.dtd"
   xmlns="http://www.w3.org/2000/svg"
   xmlns:svg="http://www.w3.org/2000/svg">
  <defs
     id="defs1" />
  <sodipodi:namedview
     id="namedview1"
     pagecolor="#ffffff"
     bordercolor="#000000"
     borderopacity="0.25"
     inkscape:showpageshadow="2"
     inkscape:pageopacity="0.0"
     inkscape:pagecheckerboard="0"
     inkscape:deskcolor="#d1d1d1"
     inkscape:zoom="3.6384672"
     inkscape:cx="79.841314"
     inkscape:cy="104.57701"
     inkscape:window-width="1920"
     inkscape:window-height="1009"
     inkscape:window-x="-8"
     inkscape:window-y="-8"
     inkscape:window-maximized="1"
     inkscape:current-layer="svg1" />
  <path
     d="m 88.2193,42.0384 c -3.6479,0 -6.4823,-0.6594 -8.7,-1.6407 -2.2772,-6.1158 -5.645,-11.7058 -9.8636,-16.5478 0.0358,-3.0191 1.0258,-7.5944 3.7434,-11.285 C 75.9484,9.10281 80.2928,6 88.2193,6 c 7.9265,0 12.2707,3.10281 14.8207,6.5649 2.768,3.7602 3.744,8.4389 3.744,11.4543 0,3.0154 -0.976,7.6941 -3.744,11.4544 -2.55,3.462 -6.8942,6.5648 -14.8207,6.5648 z m -24.04,9.8404 c 0,15.5092 -12.8962,28.3105 -29.0897,28.3105 C 18.8962,80.1893 6,67.388 6,51.8788 6,36.3696 18.8962,23.5683 35.0896,23.5683 c 16.1935,0 29.0897,12.8013 29.0897,28.3105 z m 44.1627,11.9127 c 17.908,0 28.526,7.3319 34.864,16.1013 6.558,9.0742 8.794,20.0999 8.794,27.2252 0,7.36 -1.684,17.695 -7.488,26.438 -5.62,8.466 -15.454,16.001 -33.07,17.628 -19.2191,1.775 -39.9922,0.548 -55.8122,-2.647 -7.9505,-1.606 -14.3051,-3.642 -18.5156,-5.836 -2.1103,-1.1 -3.3919,-2.092 -4.0782,-2.844 -0.3107,-0.341 -0.4347,-0.557 -0.4795,-0.656 0.0199,-0.293 0.1355,-1.079 0.5698,-2.49 0.4565,-1.483 1.162,-3.334 2.1182,-5.503 1.9099,-4.332 4.683,-9.631 8.0477,-15.3 C 50.0461,104.527 58.8995,92.1247 67.3667,83.4216 74.3979,76.1944 80.5873,71.3565 86.9365,68.2867 93.211,65.253 99.9627,63.7915 108.342,63.7915 Z M 32.5341,139.139 C 0,0 0,0 32.5341,139.139 Z"
     stroke="#000000"
     stroke-width="12"
     id="path1"
     sodipodi:nodetypes="scccscscssssssscsccccccccccsscc" />
</svg>

<svg width="158" height="158" viewBox="0 0 158 158" fill="none" xmlns="http://www.w3.org/2000/svg"><path d="M88.2193 42.0384C84.5714 42.0384 81.737 41.379 79.5193 40.3977C77.2421 34.2819 73.8743 28.6919 69.6557 23.8499C69.6915 20.8308 70.6815 16.2555 73.3991 12.5649C75.9484 9.10281 80.2928 6 88.2193 6C96.1458 6 100.49 9.10281 103.04 12.5649C105.808 16.3251 106.784 21.0038 106.784 24.0192C106.784 27.0346 105.808 31.7133 103.04 35.4736C100.49 38.9356 96.1458 42.0384 88.2193 42.0384ZM64.1793 51.8788C64.1793 67.388 51.2831 80.1893 35.0896 80.1893C18.8962 80.1893 6 67.388 6 51.8788C6 36.3696 18.8962 23.5683 35.0896 23.5683C51.2831 23.5683 64.1793 36.3696 64.1793 51.8788ZM108.342 63.7915C126.25 63.7915 136.868 71.1234 143.206 79.8928C149.764 88.967 152 99.9927 152 107.118C152 114.478 150.316 124.813 144.512 133.556C138.892 142.022 129.058 149.557 111.442 151.184C92.2229 152.959 71.4498 151.732 55.6298 148.537C47.6793 146.931 41.3247 144.895 37.1142 142.701C35.0039 141.601 33.7223 140.609 33.036 139.857C32.7253 139.516 32.6013 139.3 32.5565 139.201C32.5764 138.908 32.692 138.122 33.1263 136.711C33.5828 135.228 34.2883 133.377 35.2445 131.208C37.1544 126.876 39.9275 121.577 43.2922 115.908C50.0461 104.527 58.8995 92.1247 67.3667 83.4216C74.3979 76.1944 80.5873 71.3565 86.9365 68.2867C93.211 65.253 99.9627 63.7915 108.342 63.7915ZM32.5341 139.139C32.5351 139.139 32.5392 139.149 32.5433 139.17C32.5351 139.149 32.533 139.138 32.5341 139.139Z" stroke="black" stroke-width="12"/></svg>
